X: 22883
T: Lark On The Strand, The
R: jig
M: 6/8
K: Adorian
|:ABG AGA|BGE G3|ABA GBd|egd edB|
ABG AGA|BGE G2 D|GBA G2B|dBG BdB:|
|:GB/c/d g3|gba gdB|GB/c/d g3|egd edB|
GB/c/d g3|gba g3|abg age|egd edB:|

